X: 27140
T: Miss McGuinness
R: reel
M: 4/4
K: Fmajor
fd|:cF (3GFF cFAc|defg agfd|cF (3GFF cFAc|d2cA G2 fd:|
g2 ag fddf|dfcf dfcf|g2 ag fdde|fdcA G4|
g2 ag fddf|dfcf dfcf|g2 ag fdde|fdcA G2 fd||

